src/assets/icons/trash.svg

<svg width="14" height="14" viewBox="0 0 14 14" fill="none" xmlns="http://www.w3.org/2000/svg">
<g id="trash">
<g clip-path="url(#clip0_156_4641)">
<path id="Vector" fill-rule="evenodd" clip-rule="evenodd" d="M3.952 1.80697C3.952 1.56291 4.22742 1.19931 4.776 1.19931H9.224C9.77534 1.19931 10.048 1.55725 10.048 1.80697V3.01429C10.048 3.06676 10.0547 3.11766 10.0674 3.16616H3.93259C3.94526 3.11766 3.952 3.06676 3.952 3.01429V1.80697ZM2.77141 3.16616C2.75874 3.11766 2.752 3.06676 2.752 3.01429V1.80697C2.752 0.723796 3.75658 0 4.776 0H9.224C10.2407 0 11.248 0.713468 11.248 1.80697V3.01429C11.248 3.06676 11.2413 3.11766 11.2286 3.16616H13.4C13.7314 3.16616 14 3.43463 14 3.76581C14 4.097 13.7314 4.36547 13.4 4.36547H12.576V12.193C12.576 13.2762 11.5714 14 10.552 14H3.44C2.42334 14 1.416 13.2865 1.416 12.193V4.36547H0.6C0.268629 4.36547 0 4.097 0 3.76581C0 3.43463 0.268629 3.16616 0.6 3.16616H2.024H2.77141ZM2.616 4.36547V12.193C2.616 12.4428 2.88867 12.8007 3.44 12.8007H10.552C11.1006 12.8007 11.376 12.4371 11.376 12.193V4.36547H2.616ZM5.576 6.18045C5.90737 6.18045 6.176 6.44893 6.176 6.78011V10.394C6.176 10.7252 5.90737 10.9937 5.576 10.9937C5.24463 10.9937 4.976 10.7252 4.976 10.394V6.78011C4.976 6.44893 5.24463 6.18045 5.576 6.18045ZM9.024 6.78011C9.024 6.44893 8.75537 6.18045 8.424 6.18045C8.09263 6.18045 7.824 6.44893 7.824 6.78011V10.394C7.824 10.7252 8.09263 10.9937 8.424 10.9937C8.75537 10.9937 9.024 10.7252 9.024 10.394V6.78011Z" fill="black"/>
</g>
</g>
<defs>
<clipPath id="clip0_156_4641">
<rect width="14" height="14" fill="white"/>
</clipPath>
</defs>
</svg>

<svg xmlns="http://www.w3.org/2000/svg" fill="none" viewBox="0 0 14 14"><g clip-path="url(#a)"><path fill="#000" fill-rule="evenodd" d="M3.952 1.807c0-.244.275-.608.824-.608h4.448c.551 0 .824.358.824.608v1.207q0 .08.02.152H3.932a.6.6 0 0 0 .019-.152zm-1.18 1.36a.6.6 0 0 1-.02-.153V1.807C2.752.724 3.757 0 4.776 0h4.448c1.017 0 2.024.713 2.024 1.807v1.207a.6.6 0 0 1-.02.152H13.4a.6.6 0 1 1 0 1.2h-.824v7.827c0 1.083-1.005 1.807-2.024 1.807H3.44c-1.017 0-2.024-.713-2.024-1.807V4.365H.6a.6.6 0 1 1 0-1.199h2.171m-.156 1.198v7.828c0 .25.273.608.824.608h7.112c.549 0 .824-.364.824-.608V4.365zm2.96 1.815a.6.6 0 0 1 .6.6v3.614a.6.6 0 0 1-1.2 0V6.78a.6.6 0 0 1 .6-.6m3.448.6a.6.6 0 0 0-1.2 0v3.614a.6.6 0 0 0 1.2 0z" clip-rule="evenodd"/></g><defs><clipPath id="a"><path fill="#fff" d="M0 0h14v14H0z"/></clipPath></defs></svg>
